X:485
T:Jack's the lad
T:The college hornpipe
T:The sailor's hornpipe
R:Hornpipe
O:Ireland
B:Fiddler's Fakebook
B:O'Neill's 1737
S:1 My arrangement from various sources
S:2 O'Neill's
Z:1 Transcription, arrangement, chords:Mike Long
Z:2 Transcription:Bob Safranek, chords:Mike Long
M:C|
L:1/8
K:G
gf|\
"G"g2G2 G2dc|Bdg2 g2fg|"Am"a2A2 A2AG|"D"FAd2 d2ef|\
"G"gfed "C"edcB|"C"cBAG "D"AGFE|
"G"DGFA "D"GBAc|"G"B2G2 G2:|\
|:dc|\
"G"Bdgd Bdgd|"C"e2c2 c2ed|"A"^ceae ceae|
"D"f2d2 d2ef|\
"G"gfed "C"edcB|"C"cBAG "D"AGFE|"G"DGFA "D"GBAc|"G"B2G2 G2:|
